svg/device/high_voltage_power_line.svg

<svg xmlns="http://www.w3.org/2000/svg" width="24" height="24" viewBox="0 0 24 24"><g fill="none" fill-rule="evenodd"><path d="M24,0 L24,24 L0,24 L0,0 L24,0 Z M12.5935,23.2578 L12.5819,23.2595 L12.5109,23.295 L12.4919,23.2987 L12.4767,23.295 L12.4057,23.2595 C12.3958,23.2564 12.387,23.259 12.3821,23.2649 L12.378,23.2758 L12.3609,23.7031 L12.3659,23.7235 L12.3769,23.7357 L12.4805,23.8097 L12.4953,23.8136 L12.5071,23.8097 L12.6107,23.7357 L12.6233,23.7197 L12.6267,23.7031 L12.6096,23.2758 C12.6076,23.2657 12.601,23.2593 12.5935,23.2578 Z M12.8584,23.1453 L12.8445,23.1473 L12.6598,23.2397 L12.6499,23.2499 L12.6472,23.2611 L12.6651,23.6906 L12.6699,23.7034 L12.6784,23.7105 L12.8793,23.8032 C12.8914,23.8069 12.9022,23.803 12.9078,23.7952 L12.9118,23.7812 L12.8777,23.1665 C12.8753,23.1546 12.8674,23.147 12.8584,23.1453 Z M12.143,23.1473 C12.1332,23.1424 12.1222,23.1453 12.1156,23.1526 L12.1099,23.1665 L12.0758,23.7812 C12.0751,23.7927 12.0828,23.8019 12.0926,23.8046 L12.1083,23.8032 L12.3092,23.7105 L12.3186,23.7024 L12.3225,23.6906 L12.3404,23.2611 L12.3372,23.2485 L12.3278,23.2397 L12.143,23.1473 Z"/><path fill="#09244B" d="M15.0001,3 C15.2356,3 15.4542,3.082 15.6266,3.22061 L20.6248,7.21913 C20.9564,7.48443 21.0843,7.93026 20.9437,8.33101 C20.8031,8.73175 20.4247,9 20.0001,9 L16.7245,9 L16.9773,10.7693 L19.9487,19.6838 C20.1234,20.2077 19.8402,20.774 19.3163,20.9487 C18.7923,21.1233 18.226,20.8402 18.0514,20.3162 L17.4254,18.4384 L12.0001,14.3048 L6.57467,18.4384 L5.94874,20.3162 C5.77409,20.8402 5.20777,21.1233 4.68383,20.9487 C4.15989,20.774 3.87673,20.2077 4.05137,19.6838 L7.02286,10.7693 L7.27562,9 L4.00006,9 C3.57537,9 3.197,8.73175 3.05643,8.33101 C2.91585,7.93026 3.04374,7.48443 3.37536,7.21913 L8.37351,3.22061 C8.54589,3.082 8.76449,3 9.00006,3 L15.0001,3 Z M8.7723,11.8456 L7.69811,15.0681 L10.35,13.0476 L8.7723,11.8456 Z M15.2278,11.8456 L13.6501,13.0476 L16.302,15.0681 L15.2278,11.8456 Z M14.7042,9 L9.29592,9 L9.20185,9.65848 L12.0001,11.7904 L14.7983,9.65848 L14.7042,9 Z M14.1328,5 L9.86735,5 L9.58164,7 L14.4185,7 L14.1328,5 Z M7.65301,6.35826 L6.85084,7 L7.56133,7 L7.65301,6.35826 Z M16.3471,6.35826 L16.4388,7 L17.1493,7 L16.3471,6.35826 Z"/></g></svg>

<svg xmlns="http://www.w3.org/2000/svg" width="24" height="24"><g fill="none" fill-rule="evenodd"><path d="M24 0v24H0V0zM12.594 23.258l-.012.002-.071.035-.02.004-.014-.004-.071-.036c-.01-.003-.019 0-.024.006l-.004.01-.017.428.005.02.01.013.104.074.015.004.012-.004.104-.074.012-.016.004-.017-.017-.427c-.002-.01-.009-.017-.016-.018m.264-.113-.014.002-.184.093-.01.01-.003.011.018.43.005.012.008.008.201.092c.012.004.023 0 .029-.008l.004-.014-.034-.614c-.003-.012-.01-.02-.02-.022m-.715.002a.023.023 0 0 0-.027.006l-.006.014-.034.614c0 .012.007.02.017.024l.015-.002.201-.093.01-.008.003-.011.018-.43-.003-.012-.01-.01z"/><path fill="#09244B" d="M15 3c.236 0 .454.082.627.22l4.998 4A1 1 0 0 1 20 9h-3.276l.253 1.77 2.972 8.914a1 1 0 1 1-1.898.632l-.626-1.878L12 14.305l-5.425 4.133-.626 1.878a1 1 0 0 1-1.898-.632l2.972-8.915L7.276 9H4a1 1 0 0 1-.625-1.78l4.999-4A.998.998 0 0 1 9 3zm-6.228 8.846-1.074 3.222 2.652-2.02zm6.456 0-1.578 1.202 2.652 2.02zM14.704 9H9.296l-.094.658L12 11.79l2.798-2.132zm-.571-4H9.867l-.285 2h4.836zm-6.48 1.358L6.851 7h.71zm8.694 0L16.44 7h.71z"/></g></svg>
